!!!SOCIAL_FUNCTION:	war songs
!!!PDT:	1909
!!!OTL: No_126_Little_Eagle's_Song.krn
!!!REG: Great_Lakes
!!!LANG: Non-Tone
!!!LING_GROUP: Algonquin
**kern	**kern
*staff2	*staff1
=1-	=1-
*clefF4	*clefF4
*k[b-e-a-d-]	*k[b-e-a-d-]
*M3/4	*M3/4
2.r	8f\L
.	8f\J
.	4f\
.	12e-\L
.	12c\
.	12c\J
=2	=2
12GG^/	8e-\L
12r	.
.	8c\J
12GG/	.
12GG^/	8.c\L
12r	.
12GG/	.
.	16c\Jk
12GG^/	12B-\L
12r	12A-\
12GG/	16B-\L
.	48c\JJk
=3||	=3||
*M2/4	*M2/4
2r	8.B-\L
.	16A-\Jk
.	4F\
=4||	=4||
*M3/4	*M3/4
2.r	8A-\L
.	8B-\J
.	8.B-\L
.	16A-\Jk
.	16.F\LL
.	32G\K
.	16F\
.	16E-\JJ
=5	=5
2.r	24F\LK
.	[8F\
.	12F\J_
.	2F\]
=6	=6
2.r	12d-\L
.	12d-\
.	12d-\J
.	16c\LL
.	(16d-\
.	16B-\)
.	16G\JJ
.	8.B-\L
.	16c\Jk
=7||	=7||
*M2/4	*M2/4
2r	8.B-\L
.	16A-\Jk
.	4F\
=8||	=8||
*M3/4	*M3/4
2.r	8A-\L
.	8B-\J
.	cq/
.	8.B-\L
.	16A-\Jk
.	16.F\LL
.	32G\K
.	16F\
.	16E-\JJ
=9	=9
2.r	32F\LLK
.	[16.F\
.	16.F\]
.	32F\JJk
.	2F\
==	==
*-	*-
